X: 74
T: Polska efter Johan Jacob Bruun
O: S\"arsl\"ov, Sk\aane, Sweden
R: sl\"angpolska
Z: 2018 John Chambers <jc:trillian.mit.edu>
S: Facebook video, abcnotation.com image.
S: http://www.folksweden.com/files/Polska_efter_Johan_Jacob_Bruun.pdf (Tim Rued) 2021-4-2
M: 3/4
L: 1/16
K: Dm
|:\
A2d2 d2^c2 c2A2 | A=B^cd e6 c2 |\
d2d^c d2e2 f2g2 | a2a2 gabg a4 |\
A2d2 d2^c2 c2A2 |
A=B^cd e6 c2 |\
d2^c2 d2e2 f2ed | e2d^c d4 D4 ::\
f2a2 f2a2 (ba)gf | e2g2 e2g2 (ag)fe |
f2a2 f2a2 (ba)gf | e2g2 e2g2 (ag)fe |\
(d^c)de (fe)fg (ab)ag | (fe)d^c e4 d4 :|

%%sep 1 1 500

